src/pos-icons/coffee-off.svg

<svg height="24" viewBox="0 0 24 24" width="24" xmlns="http://www.w3.org/2000/svg"><path d="m3.27 2 18.73 18.72-1.28 1.28-.99-1h-17.73v-2h15.73l-2.29-2.29c-.44.18-.94.29-1.44.29h-6c-2.21 0-4-1.79-4-4v-7.73l-2-2zm18.73 3v3c0 1.1-.9 2-2 2h-2v3c0 .36-.06.7-.15 1.04l-11.04-11.04h13.19c1.1 0 2 .89 2 2m-2 0h-2v3h2z"/></svg>

<?xml version="1.0" encoding="UTF-8"?><!DOCTYPE svg PUBLIC "-//W3C//DTD SVG 1.1//EN" "http://www.w3.org/Graphics/SVG/1.1/DTD/svg11.dtd"><svg xmlns="http://www.w3.org/2000/svg" xmlns:xlink="http://www.w3.org/1999/xlink" version="1.1" id="mdi-coffee-off" width="24" height="24" viewBox="0 0 24 24"><path d="M3.27 2L22 20.72L20.72 22L19.73 21H2V19H17.73L15.44 16.71C15 16.89 14.5 17 14 17H8C5.79 17 4 15.21 4 13V5.27L2 3.27L3.27 2M22 5V8C22 9.1 21.1 10 20 10H18V13C18 13.36 17.94 13.7 17.85 14.04L6.81 3H20C21.1 3 22 3.89 22 5M20 5H18V8H20V5Z" /></svg>
